X: 60
T:The Market Day
R:reel
C:Ed Reavy
M:2/2
L:1/8
Z:Joe Reavy
N:Always a special day in the old tradition.
K:D
A \
|| dcAG FDDE | FEFG AB (3=cBA | dcAG FDDg | fdec dfec |
| dcAG FDDE | FEFG AB (3=cBA | d^cAG FDDg | fdec d2 (3ABc |
| d2 fd adfd | cdeg fdec | d2 fd adfd | cdeg fddc |
| defg bged | cdef g2 fg | (3agf (3gfe fded | cdeg fddc |]
